package/converter/svg/thin/circle-t.svg

<svg xmlns="http://www.w3.org/2000/svg" viewBox="0 0 512 512"><!-- Font Awesome Pro 6.0.0-alpha2 by @fontawesome - https://fontawesome.com License - https://fontawesome.com/license (Commercial License) --><path d="M376 144H136C131.594 144 128 147.578 128 152S131.594 160 136 160H248V392C248 396.422 251.594 400 256 400S264 396.422 264 392V160H376C380.406 160 384 156.422 384 152S380.406 144 376 144ZM256 16C123.451 16 16 123.451 16 256S123.451 496 256 496S496 388.549 496 256S388.549 16 256 16ZM256 480C132.486 480 32 379.514 32 256S132.486 32 256 32S480 132.486 480 256S379.514 480 256 480Z"/></svg>

<svg xmlns="http://www.w3.org/2000/svg" viewBox="0 0 512 512"><!--! Font Awesome Pro 6.6.0 by @fontawesome - https://fontawesome.com License - https://fontawesome.com/license (Commercial License) Copyright 2024 Fonticons, Inc. --><path d="M256 16a240 240 0 1 1 0 480 240 240 0 1 1 0-480zm0 496A256 256 0 1 0 256 0a256 256 0 1 0 0 512zM136 144c-4.4 0-8 3.6-8 8s3.6 8 8 8l112 0 0 232c0 4.4 3.6 8 8 8s8-3.6 8-8l0-232 112 0c4.4 0 8-3.6 8-8s-3.6-8-8-8l-120 0-120 0z"/></svg>
